X:171
T:Miss Twentymans Delight. JGi.171
M:6/8
L:1/8
Q:3/8=120
S:Joshua Gibbons MS,1823,Tealby,Lincs.
R:jig
O:Tealby,Lincolnshire
Z:VMP/R.Greig, 2009
K:F
c|f2f agf|f2ee2e|fed cdB|B2AA2c|
f2f agf|f2ee2f|afe dc=B|c3-c2:|
|:c|e2fg2a|b2bg2a|b2ga2f|egec2c|
GAB c2c|d2cc2c|ABc c2c|d2cc2a|
b2bg2g|a2af2f|g2g ece|f3-f2:|

